X:74
T:The Cuckoo Fleadh
R:jig
C:Paul S. Cranford
O:Cape Breton Island
S:http://www.cranfordpub.com
D:currently unrecorded
B:currently unpublished in book form
Z:psc, (re-formatted,updated 9/17/04)
N:composed for The Cuckoo Fleadh. April 30 - May 3 99, Kinvara, Co. Galway
H:                                                        copyrights Cranford Publications, SOCAN
L:1/8
Q:300
M:6/8
K:Edor
D|B,EF GFE|GFG AGA|Bdd Add|dAG FED|
B,EF GFE|GFG AGA|Bdd AGF|GEE E2:|
|:A|Bed BAB|dcd FGA|Bed efa|[1bee e2 d|
Bed BAB|dcd FGA|BGG AdF|GEE E2:|
[2bee e2 f|gfe dgf|edA BGA|Bdd AGF|GEE E2|]
